X:5974
T:Gan Ainm
M:4/4
L:1/8
R:Reel
D:Session tape - Corofin, Clare
Z:Bernie Stocks
K:G
GB~B2 c2BA | GABd egdB | AD(3FED A3c | BdcA BdcA| G3B AF~F2 |\
G2BG ABcA | dg~g2 ag~g2 |1 fdcA GABA :|2 fdcA G3B |: dg~g2 fgaf |\
gdBG D3B, |1C2EC B,DGD | FGAB c2Bc :|2 C2EC B,DGB | cAFD G4 ||
